X:1
T:I Love God’s Word
T:I Love God’s Word
T:Robert Harkness
T:Robert Harkness, 1921
T:Public Domain Courtesy of the Cyber Hymnal™
C:Robert Harkness
Z:Public Domain
Z:Courtesy of the Cyber Hymnal™
%%score ( 1 2 ) ( 3 4 )
L:1/8
Q:1/4=110
M:4/4
K:C
V:1 treble 
V:2 treble 
V:3 bass 
V:4 bass 
V:1
 C2 | C2 [CE]2 [EG]2 [Gc]2 | [Ac]4 [GB]2 [FA]2 | [EG]2 [EG]>[FA] [EG]2 [DF]2 | [CE]6 C2 | %5
w: 1.~I|love God’s Word so|pre- cious, It|tells of His love for|me, It|
w: 2.~I|love God’s Word of|par- don, It|tells me of sins for-|giv’n; It|
w: 3.~I|love God’s Word vic-|tor- ious, It|tells of the con- quering|Lord, Who|
w: 4.~I|love God’s Word of|prom- ise, Of|Him who shall come a-|gain, Of|
 C2 [CE]2 [EG]2 [Gc]2 | [Ac]4 [GB]2 [FA]2 | [EG]2 [CG]>[CA] [CE]2 [B,D]2 | C6 || %9
w: tells how Je- sus|suf- fered, And|died o- n Cal- va-|ry.|
w: brings sweet peace ne’er|end- ing, And|hope on the joys of|Heav’n.|
w: rose from death tri-|umph- ant, Ac-|cord- ing to God’s own|Word.|
w: that glad day when|Je- sus As|king of the earth shall|reign.|
"^Refrain" [EG][Ec] | [FB]2 [DF]2 [DF]2 [DF][FA] | [EG]2 [CE]2 [CE]2 [EG][EG] | %12
w: |||
w: I will|hide God’s Word in my|heart each day, That a-|
w: |||
w: |||
 [FA]2 [GB][Gc] [^Fd]2 [FA]2 | [Fd]6 [Gc] x | [Gd] x7 | [Ge]2 [Gd]2 [Gc]2 [Dc][DB] | %16
w: ||||
w: gainst Him I might not|sin; It|will|bless- ing bring, make the|
w: ||||
w: ||||
 [CA]2 [GA]2 !fermata![^Fd]2 [Fc][FA] | [EG]2 [Ec]2 [Fd]2 [FA][FB] | [Ec]6 |] %19
w: |||
w: joy- bells ring, If I|hide God’s Word in my|heart.|
w: |||
w: |||
V:2
 C2 | C2 x6 | x8 | x8 | x6 C2 | C2 x6 | x8 | x8 | C6 || x2 | x8 | x8 | x8 | x8 | x8 | x8 | x8 | %17
 x8 | x6 |] %19
V:3
 [C,E,]2 | [C,E,]2 [C,G,]2 [C,C]2 [E,C]2 | [F,C]4 [F,C]2 [F,C]2 | %3
 [G,C]2 [G,C]>[G,C] [G,B,]2 [G,,B,]2 | [C,G,]6 [C,E,]2 | [C,E,]2 [C,G,]2 [C,C]2 [E,C]2 | %6
 [F,C]4 [F,C]2 [F,C]2 | [G,C]2 [E,G,]>F, [G,,G,]2 [G,,F,]2 | [C,E,]6 || [C,G,][C,G,] | %10
 [D,G,]2 [G,B,]2 [G,B,]2 [G,B,][G,B,] | [C,C]2 [C,G,]2 [C,G,]2 [C,C][C,C] | %12
 [F,C]2 [F,D][E,C] [D,A,]2 [D,C]2 | [G,B,]6 [E,C][D,B,] | [C,C]2 [D,B,]2 [E,C]2 [E,^G,][E,G,] | %15
 (A,B,) [E,^C]2 !fermata![D,D]2 [D,A,][D,D] | [G,C]2 [G,C]2 [G,B,]2 [G,C][G,D] | [C,C]6 x2 | x6 |] %19
V:4
 x2 | x8 | x8 | x8 | x8 | x8 | x8 | x7/2 F,/ x4 | x6 || x2 | x8 | x8 | x8 | x8 | x8 | F,2 x6 | x8 | %17
 x8 | x6 |] %19

